!!!COM: Schubert, Franz Peter
!!!CDT: 1797-1828
!!!OTL: Staendchen
!!!SCT: DV 957
!!!YOR: Franz Schubert: Selected songs
!!!PPE: Max Friedlaender
!!!PSR: C.F. Peters 
!!!PSP: Frankfurt, London, New York
!!!PSD: n.d.
!!!PPG: pp.16-19
!!!ODT: 1828///
!!!ONB: Leading and trailing bars of rest have been deleted.
**kern
*M3/4
*MM[Maessig]
*d:
*k[b-]
=1
(12a
12b-)
12a
4.dd
8a
=2
(12g
12a)
12g
4dd
8g
8r
=3
4.a
8g
(12g
12f)
12e
=4
2f
4r
=5
2.r
=6
2.r
=7
(12a
12b-)
12a
4.ff
8a
=8
(12g
12a)
12g
4.ee
8dd
=9
4.cc
8b-
(12b-
12a)
12g
=10
2a
4r
=11
2.r
=12
2.r
=13
8.a
16cc#
4.ff
8ee
=14
8.dd
16a
4.f
8d
=15
(48b-
48cc
24b-
12a)
12b-
4.dd
8b-
=16
2.a
=17
(48g
48a
24g
12f#)
12g
4.b-
8g
=18
2.fn
=19
8.a
16cc#
4.ff
8ee
=20
8.dd
16a
4.f#
8d
=21
(48bn
48cc#
24bn
12a#)
12b
4.dd
8b
=22
2.an
=23
(12ee
12dd#)
12ee
4.gg
8cc#
=24
2.ddn
=25
2.r
=26
2.r
=27
2.r
=28
2.r
=29
2.r
=30
2.r
=31
2.r
=32
2.r
=33
(12a
12b-)
12a
4.dd
8a
=34
(12g
12a)
12g
4dd
8g
8r
=35
4.a
8g
(12g
12f)
12e
=36
2f
4r
=37
2.r
=38
2.r
=39
(12a
12b-)
12a
4.ff
8a
=40
(12g
12a)
12g
4.ee
8dd
=41
4.cc
8b-
(12b-
12a)
12g
=42
2a
4r
=43
2.r
=44
2.r
=45
8.a
16cc#
4.ff
8ee
=46
8.dd
16a
4.f
8d
=47
(48b-
48cc
24b-
12a)
12b-
4.dd
8b-
=48
2.a
=49
(48g
48a
24g
12f#)
12g
4.b-
8g
=50
2.fn
=51
8.a
16cc#
4.ff
8ee
=52
8.dd
16a
4.f#
8d
=53
(48bn
48cc#
24b
12a#)
12b
4.dd
8b
=54
2.an
=55
(12ee
12dd#)
12ee
4.gg
8cc#
=56
2.ddn
=57
8.a
16a
8.cc#
16cc#
8.ee
16ee
=58
4dd
4cc#
4r
=59
4.a
8cc#
8.ee
16dd
=60
2cc#
4r
=61
4.ff#
8ee
(12ee
12dd)
12cc#
=62
8.bn
16cc#
4dd
8b
8r
=63
2.r
=64
2.r
=65
(48bn
48cc#
24bn
12a#)
12b
4.dd
8b
=66
2.an
=67
(12ee
12dd#)
12ee
4.gg
8cc#
=68
[2.ddn
=69
4dd]
4r
4dd
=70
2.b-
=71
2.a
=72
2f#
4r
==
*-
!!!ENC: David Huron
!!!EMD: Paul von Hippel updated this file in the following ways (1998/9/2,21-22/):
!!!EMD:  (1) changed the representation of slurs from curly braces to parentheses 
!!!EMD:  (2) changed freeform comments into reference records and tandem interpretations
!!!EMD:  (3) changed final barline from quadruple (====) to double (==)
!!!EMD:  (4) added key signatures, key designations, and tempi
!!!EEV: Version 2.0
